X: 5848
T: Calliope House
R: jig
M: 6/8
K: Dmajor
|:"D"dAA fAA|"A"eAA "D"fAA|"G"Bee e2d|"A"efe dBA|"D"FAA A2F|
"G"A2B d2e|1 "Em"f2f fed|"A"e3 e2A:|2 "G" f2f edB|"D"d3 efg||
|:"D"a2a faa|eaa faa|"G"g2g fgf|"Em"efe dBA|"D"FAA A2F|
"G"A2B d2e|1 "Em"f2f fed|"A"e3 efg:|2 "G"f2f edB|"D"d3d3||

